X:348
T:The woman of the house
T:The cows are a-milking
R:Reel
O:Ireland
B:Ceol 1 n71 mistress of the house
B:Ceol 1 n86
B:Joyce, P. W.; "Old Irish Folk Music and Songs"
B:O'Neill's 1300
S:My arrangement from O'Neill's
Z:Transcription:Trish O'Neil, arrangement, chords:Mike Long
M:C|
L:1/8
K:G
"G"GB~B2 "C"cBAB|"G"GBdg "D"e2d2|"G"GB~B2 "C"cBAB|"D"eA~A2 eA~A2|\
"G"GB~B2 "C"cBAB|"G"GBdg "D"e2d2|
"G"G2BG "Am"A2GA|"D"BcAc "G"BGG2:|\
"G"g2gd "C"e2ed|"G"gfge dBGB|"G"g2gd "C"e2ed|"D"eA~A2 eA~A2|
"G"g2gd "Em"e2ed|"C"gfge "G"dBGB|"G"G2BG "Am"A2GA|"D"BcAc "G"BGG2||\
"G"g2gd "C"e2ed|"C"gfge "G"dBGB|
"G"g2gd "C"e2ed|"D"eA~A2 eA~A2|\
"G"gaba gfed|"C"efge "G"dBAB|"G"G2BG "Am"A2GA|"D"BcAc "G"BGG2|]
